public/icon/svg/Mi.wifi.svg

<?xml version="1.0" encoding="UTF-8"?>
<svg width="1024px" height="1024px" viewBox="0 0 1024 1024" version="1.1" xmlns="http://www.w3.org/2000/svg" xmlns:xlink="http://www.w3.org/1999/xlink">
    <title>Mi.wifi</title>
    <g id="ICON-新版方图标" stroke="none" stroke-width="1" fill="none" fill-rule="evenodd">
        <g id="Mi.wifi" transform="translate(0, -0.0008)">
            <rect id="蒙版路径" fill="#2C7DFA" x="0" y="0" width="1024" height="1024"></rect>
            <circle id="椭圆形" stroke="#D4E5FE" stroke-width="20" cx="512" cy="512.000808" r="360"></circle>
            <path d="M548,651.000808 C550.542464,647.320806 550.583705,644.376768 549.89726,640.968711 C548.898583,637.972681 546.266163,635.316713 542,633.000808 C532,627.667474 522,625.000808 512,625.000808 C502,625.000808 492,627.667474 482,633.000808 C477.362898,636.12941 474.696231,638.796077 474,641.000808 C473.684212,642.000808 471.914856,645.421984 476,651.000808 C479.583789,655.894963 494.733703,672.649563 504.307458,680.586392 C507.881161,683.549062 511.027178,684.000808 512,684.000808 C512.931391,684.000808 515.913111,683.343103 519.291494,680.586392 C528.894863,672.750187 544.596373,655.927268 548,651.000808 Z M657.375322,528.909813 C663.380828,533.936142 665.442155,541.043773 662.782822,547.555329 C660.123489,554.066886 653.147512,558.993107 644.482673,560.478334 C635.817835,561.963561 626.78053,559.782152 620.775024,554.755823 C560.790283,504.591645 464.221804,504.591645 404.038328,554.781287 C394.736328,562.537255 379.017141,563.027483 368.928541,555.876241 C358.839941,548.724999 358.202275,536.640317 367.504275,528.884349 C447.362482,462.283127 577.682728,462.283127 657.358761,528.909813 L657.375322,528.909813 Z M747.243413,420.105384 C758.867306,429.706909 758.925975,445.085283 747.375564,454.745077 C735.825152,464.404871 716.888984,464.814054 704.721959,455.666757 C593.746869,368.200981 431.049895,368.118357 319.76948,455.46846 C307.645287,464.987291 288.311604,464.724648 276.586491,454.881829 C264.861379,445.039011 265.184898,429.343293 277.309091,419.824462 C412.262292,313.883957 612.615891,313.983106 747.263768,420.088859 L747.243413,420.105384 Z" id="形状" fill="#FFFFFF" fill-rule="nonzero"></path>
        </g>
    </g>
</svg>

<svg xmlns="http://www.w3.org/2000/svg" width="1024" height="1024"><g fill="none" fill-rule="evenodd"><path fill="#2C7DFA" d="M0 0h1024v1024H0z"/><circle cx="512" cy="512.001" r="360" stroke="#D4E5FE" stroke-width="20"/><path fill="#FFF" fill-rule="nonzero" d="M548 651c2.542-3.68 2.584-6.623 1.897-10.031-.998-2.996-3.63-5.652-7.897-7.968-10-5.334-20-8-30-8s-20 2.666-30 8c-4.637 3.128-7.304 5.795-8 8-.316 1-2.085 4.421 2 10 3.584 4.894 18.734 21.649 28.307 29.585 3.574 2.963 6.72 3.415 7.693 3.415.931 0 3.913-.658 7.291-3.415 9.604-7.836 25.305-24.659 28.709-29.585m109.375-122.09c6.006 5.026 8.067 12.134 5.408 18.645-2.66 6.512-9.635 11.438-18.3 12.923-8.665 1.486-17.702-.696-23.708-5.722-59.985-50.164-156.553-50.164-216.737.025-9.302 7.756-25.02 8.246-35.11 1.095-10.088-7.151-10.726-19.236-1.424-26.992 79.858-66.6 210.179-66.6 289.855.026h.016m89.868-108.805c11.624 9.602 11.683 24.98.133 34.64s-30.487 10.07-42.654.922c-110.975-87.466-273.672-87.549-384.953-.199-12.124 9.52-31.457 9.257-43.183-.586-11.725-9.843-11.401-25.539.723-35.058 134.953-105.94 335.307-105.84 469.955.265l-.02.016"/></g></svg>
